source/icons/telegram.svg

<svg width="29" height="22" viewBox="0 0 29 22" fill="none" xmlns="http://www.w3.org/2000/svg">
<path fill-rule="evenodd" clip-rule="evenodd" d="M23.9608 3.15291C24.1393 3.30222 24.2255 3.5349 24.1872 3.76448L21.5611 19.5214C21.5244 19.7411 21.3789 19.9273 21.1745 20.0159C20.97 20.1045 20.7346 20.0833 20.5493 19.9597L12.6708 14.7074C12.5177 14.6054 12.4145 14.4437 12.3862 14.2619C12.358 14.08 12.4074 13.8947 12.5223 13.751L15.133 10.4877L10.773 13.3944C10.577 13.525 10.326 13.5407 10.1152 13.4353L4.86293 10.8092C4.62769 10.6915 4.48535 10.4449 4.5012 10.1824C4.51705 9.91983 4.68804 9.6921 4.93573 9.60364L23.3188 3.03826C23.538 2.95998 23.7822 3.00359 23.9608 3.15291ZM6.82626 10.3228L10.3617 12.0905L17.9231 7.0495C18.1925 6.86994 18.5525 6.91349 18.7712 7.1521C18.99 7.3907 19.0022 7.75314 18.8 8.00591L13.995 14.0121L20.4328 18.3039L22.7083 4.65058L6.82626 10.3228Z" fill="#666666"/>
</svg>

<svg xmlns="http://www.w3.org/2000/svg" viewBox="0 0 29 22"><path fill="#666" d="M23.96 3.15c.18.15.27.38.23.61l-2.63 15.76a.66.66 0 0 1-1.01.44l-7.88-5.25a.66.66 0 0 1-.15-.96l2.61-3.26-4.36 2.9a.66.66 0 0 1-.65.05L4.86 10.8a.66.66 0 0 1 .08-1.2l18.38-6.57a.66.66 0 0 1 .64.11ZM6.83 10.32l3.53 1.77 7.56-5.04a.66.66 0 0 1 .88.96L14 14l6.43 4.3 2.28-13.66-15.88 5.67Z"/></svg>
